X: 50
T:Josephine's
T:Josefin's
T:Josephine's Christening
F:http://blackrosetheband.googlepages.com/ABCTUNES.ABC May 2009
M:3/4
L:1/8
C:Roger Tallroth
S:Dervish - At the end of the Day
R:waltz
K:Gmaj
"G"DGA|Bdc|BAG|D2 E|"C" C2 C/2C/2|EGF|E3|"D"D3|
"G"DGA|Bdc|BAG|D2 E|"C"C2 C/2C/2| EFG|"D"A3|1 A3 :|2ABc|
|:"G"dBd|g2f|"C"e3|"G"d3|"C"ced|cBA|"G"B>c B|"D"ABc:|
|"Em"BAG|"D"F2G|"C"G3|CDC|"G"B,DG|"D"FEF|"C"G3|G3|
T:Last Time
|:"G"dBd|g2f|"C"e3|"G"d3|"C"ced|cBA|"G"B>c B|"D"ABc:|
|"Em"BAG|"D"F2G|"C"G3|CDC|"G"B,DG|"D"FEF|"C"G3|
CDC|"G"B,DG|"D"FEF|"G"G3|G3|

